packages/core/src/svgs/tokens/mono/QUINT.svg

<svg width="24" height="24" viewBox="0 0 24 24" fill="none" xmlns="http://www.w3.org/2000/svg">
<path d="M18 18.6667V19.3333H22L21.4134 18.6667H18Z" fill="white"/>
<path d="M13.3333 18V15.3333H4.66667V4.66666H15.3333V21.9999H21.9999V19.3333H18V2H2V18H13.3333Z" fill="white"/>
<path d="M5.33341 14.6667L4.66675 15.3335H13.3334L12.6667 14.6667H5.33341Z" fill="white"/>
<path d="M5.33341 5.33343L4.66675 4.66675H15.3334L14.6668 5.33343H5.33341Z" fill="white"/>
<path d="M15.3338 4.66675L14.6672 5.33343V21.3335L15.3338 22V4.66675Z" fill="white"/>
<path d="M8.66672 7.66676L4.66675 4.66675V15.3334L8.66672 12.3333V7.66676Z" fill="white"/>
</svg>

<svg xmlns="http://www.w3.org/2000/svg" width="24" height="24" fill="none" viewBox="0 0 24 24">
    <path fill="#fff" d="M18 18.667v.666h4l-.587-.666z"/>
    <path fill="#fff" d="M13.333 18v-2.667H4.667V4.667h10.666V22H22v-2.667h-4V2H2v16z"/>
    <path fill="#fff" d="m5.333 14.667-.666.667h8.666l-.666-.667zm0-9.334-.666-.666h10.666l-.666.666zm10.001-.666-.667.666v16l.667.667z"/>
    <path fill="#fff" d="m8.667 7.667-4-3v10.666l4-3z"/>
</svg>
